flaticon/arrows/spin.svg

<svg xmlns="http://www.w3.org/2000/svg" width="32" height="32" viewBox="0 0 24 24">
    <path d="M11.28125 1.617188C13.464844 1.625 15.535156 2.359375 17.234375 3.691406L14.308594 3.691406C14.054688 3.691406 13.847656 3.898438 13.847656 4.152344 13.847656 4.410156 14.054688 4.617188 14.308594 4.617188L18.460938 4.617188C18.523438 4.617188 18.582031 4.601562 18.636719 4.578125 18.75 4.535156 18.839844 4.441406 18.886719 4.332031 18.910156 4.273438 18.921875 4.214844 18.921875 4.152344L18.921875.460938C18.921875.207031 18.714844 0 18.460938 0 18.207031 0 18 .207031 18 .460938L18 3.113281C16.105469 1.558594 13.757812.703125 11.285156.691406 11.265625.691406 11.246094.691406 11.230469.691406 8.410156.691406 5.765625 1.785156 3.773438 3.777344-.152344 7.703125-.34375 14.070312 3.34375 18.273438 3.433594 18.375 3.5625 18.429688 3.691406 18.429688 3.800781 18.429688 3.90625 18.390625 3.996094 18.316406 4.1875 18.148438 4.207031 17.855469 4.039062 17.664062.671875 13.828125.84375 8.015625 4.429688 4.429688 6.253906 2.601562 8.683594 1.617188 11.28125 1.617188zM20.652344 5.722656C20.484375 5.535156 20.191406 5.515625 20 5.683594 19.808594 5.851562 19.792969 6.140625 19.960938 6.332031 23.328125 10.171875 23.15625 15.984375 19.570312 19.570312 17.746094 21.398438 15.316406 22.402344 12.71875 22.382812 10.535156 22.375 8.464844 21.640625 6.765625 20.308594L9.691406 20.308594C9.945312 20.308594 10.152344 20.101562 10.152344 19.847656 10.152344 19.589844 9.945312 19.382812 9.691406 19.382812L5.539062 19.382812C5.476562 19.382812 5.417969 19.398438 5.363281 19.421875 5.25 19.464844 5.160156 19.558594 5.113281 19.667969 5.089844 19.726562 5.078125 19.785156 5.078125 19.847656L5.078125 23.539062C5.078125 23.792969 5.285156 24 5.539062 24 5.792969 24 6 23.792969 6 23.539062L6 20.886719C7.894531 22.441406 10.242188 23.296875 12.714844 23.308594 12.734375 23.308594 12.753906 23.308594 12.769531 23.308594 15.589844 23.308594 18.234375 22.214844 20.226562 20.222656 24.152344 16.292969 24.34375 9.925781 20.652344 5.722656zM20.652344 5.722656"/>
</svg>

<svg xmlns="http://www.w3.org/2000/svg" width="32" height="32" viewBox="0 0 24 24">
    <path d="M11.281 1.617a9.66 9.66 0 0 1 5.953 2.074H14.31a.462.462 0 0 0 0 .926h4.152a.444.444 0 0 0 .176-.039.454.454 0 0 0 .285-.426V.461a.462.462 0 0 0-.922 0v2.652A10.618 10.618 0 0 0 11.285.691h-.055c-2.82 0-5.464 1.094-7.457 3.086-3.925 3.926-4.117 10.293-.43 14.496a.466.466 0 0 0 .653.043.463.463 0 0 0 .043-.652C.672 13.828.844 8.016 4.43 4.43c1.825-1.828 4.255-2.813 6.852-2.813zm0 0M20.652 5.723a.466.466 0 0 0-.652-.04.458.458 0 0 0-.04.649c3.368 3.84 3.196 9.652-.39 13.238a9.504 9.504 0 0 1-6.851 2.813 9.66 9.66 0 0 1-5.953-2.074H9.69a.462.462 0 0 0 0-.926H5.54a.444.444 0 0 0-.176.039.454.454 0 0 0-.285.426v3.691a.462.462 0 0 0 .922 0v-2.652a10.618 10.618 0 0 0 6.715 2.422h.055c2.82 0 5.464-1.094 7.457-3.086 3.925-3.93 4.117-10.297.425-14.5zm0 0"/>
</svg>
